X:1
T:Title
%%score { ( 1 3 ) | 2 }
L:1/8
M:4/4
K:Db
V:1 treble nm="Grand Piano"
V:3 treble 
V:2 bass 
V:1
 z4 z2 z[Q:1/4=96] [FA] | [GB][FA]FE DDCD | [CG]2 [CG]4 z [EG] | %3
 [EG][DG][CG][B,G] G[B,G][CG][CGB] |[M:7/8] [FA]-[FA]-[FA]- [FA]3 z |[M:1/8] [FA] | %6
[M:4/4] [Fd][Fd][Gd][Gd] [DAd]2 [DFA]2 | [DGB][DBd][DAc][DGB] [DFA]3 [F,D] | %8
 [A,DF][DGB][DFA][K:bass][F,D] [G,CE][K:treble][B,CG][A,CF][K:bass][G,CE] | %9
[M:11/16] [F,D]/-[F,D]/-[F,D]/-[F,D]/-[F,D]/-[F,D]/-[F,D]/-[F,D]-<[F,D] | %10
[M:5/16][K:treble] [Fd]<[Ec][Fd]/ |[M:4/4] e2 A2- A>e d>e | [Ff]2 [Fd]2- [Fd]>[DF] [EG]>[FA] | %13
 [GB]2 [Bd]2 [Ac]2 [GB]2 |[M:11/16] [FA]/-[FA]/-[FA]/-[FA]/-[FA]/-[FA]/-[FA]/-[FA]-<[FA] | %15
[M:5/16] [Fd]<[Ec][Fd]/ |[M:4/4] e2 A2- A>e d>e | [Ff]2 [Fd]2- [Fd]>[DF] [EG]>[FA] | %18
 B2 e2 d2 c-[Gc] |[M:7/8] [Fd]-[Fd]-[Fd]- [Fd]3 z |] %20
V:2
 z4 z2 z [D,D] | [D,D][D,D][D,A,D][D,G,] [D,F,][D,F,][D,E,][D,F,] | [A,,A,]2 [A,,A,]4 z [A,,A,] | %3
 [A,,A,][A,,A,][A,,A,][A,,A,] [A,,A,][A,,A,][A,,A,]A,, |[M:7/8] [D,D]-[D,D]-[D,D]- [D,D]3 z | %5
[M:1/8] [D,D] |[M:4/4] [D,A,][D,A,][E,A,][E,A,] F,2 D,2 | G,G,G,G, D,3 D, | D,D,D,D, A,,A,,A,,A,, | %9
[M:11/16] D,/-D,/-D,/-D,/-D,/-D,/-D,/-D,-<D, |[M:5/16] [D,A,]<[D,A,][D,A,]/ | %11
[M:4/4][K:treble] [A,CG]2 [A,CG]2- [A,CG]>[A,CG] [A,B,G]>[A,CG] | %12
 [D,D]2 [D,A,]2- [D,A,]>[D,A,] [D,A,]>[D,D] | [G,D]2 [G,D]2 [G,D]2 [G,D]2 | %14
[M:11/16] [D,D]/-[D,D]/-[D,D]/-[D,D]/-[D,D]/-[D,D]/-[D,D]/-[D,D]-<[D,D] | %15
[M:5/16] [D,A,]<[D,A,][D,A,]/ |[M:4/4][K:treble] [A,CG]2 [A,CG]2- [A,CG]>[A,CG] [A,B,G]>[A,CG] | %17
 [D,D]2 [D,A,]2- [D,A,]>[D,A,] [D,G,]>[D,D] | [G,DG]2 [G,B,G]2 [A,F]2[K:bass] [A,,A,]2 | %19
[M:7/8] [D,A,]-[D,A,]-[D,A,]- [D,A,]3 z |] %20
V:3
 x8 | x8 | x8 | x8 |[M:7/8] x7 |[M:1/8] x |[M:4/4] x8 | x8 | x3[K:bass] x2[K:treble] x2[K:bass] x | %9
[M:11/16] x11/2 |[M:5/16][K:treble] x5/2 |[M:4/4] x8 | x8 | x8 |[M:11/16] x11/2 |[M:5/16] x5/2 | %16
[M:4/4] x8 | x8 | z4 z2 .E2 |[M:7/8] x7 |] %20

